!!!OTL-incipit: Trau di, liebe Margaret, wie oft hab ich dei Wiesla gmaeht
!!!ARE: Europa, Mitteleuropa, Deutschland, Ober - Franken, Koednitz
!!!SCT: V0005
!!!TXL: @@BAR
!!!YEM: Copyright 1995, estate of Helmut Schaffrath.
**kern	**text
*ICvox	*
*M2/4	*
*k[]	*
*C:	*
=1	=1
{8.g	Trau
16cc	di,
8b	lie-
8a	-be
=2	=2
8.g	Mar-
16g	-ga-
8e}	-ert,
{8e	wie
=3	=3
8g	oft
8f	hab
8f	ich
8f	dei
=4	=4
8a	Wies-
8g	-la
8g}	gmäht,
{8g	hob
=5	=5
8g	Heu
8cc	und
8b	Grum-
8a	-met
=6	=6
8.g	nei-
16g	-ge-
8e}	-brocht
{8e	und
=7	=7
8g	al-
8g	-les
8g	bo
8f	der
=8	=8
4e	Nocht.
4r}	.
==	==
!!!AGN: Liebes - Lied, Leid
!!!ONB: ESAC (Essen Associative Code) Database: VARIANT
!!!AMT: simple duple
!!!AIN: vox
!!!EED: Helmut Schaffrath
!!!EEV: 1.0
!!!source: Heigl, U.; Liertz, M. J. et al.: Registeer un Beispielsammlung zu den Forschungsexkursionen des Instituts für Volkskunde nach Oberfranken. Maschinenschriftliches Manuskript, München 1982.
!!!page: 99
!!!ENC: Anna Maria Matuszewska
!!!EEV: 2025/04/01
*-	*-
